img/index/index_decorate_machine.svg

<svg width="151" height="204" viewBox="0 0 151 204" fill="none" xmlns="http://www.w3.org/2000/svg">
<g opacity="0.6" clip-path="url(#clip0_21_522)">
<path d="M45.9743 0.151855L44.9803 10.128L18.1036 11.7962" stroke="#B04B19" stroke-miterlimit="10"/>
<path d="M28.0568 27.1031C28.0568 27.1031 47.9631 46.4044 54.2651 48.7307C54.2651 48.7307 57.9163 50.06 59.9043 44.0715C59.9043 44.0715 44.6432 29.7618 44.9746 10.1282" stroke="#B04B19" stroke-miterlimit="10"/>
<path d="M45.7281 2.63452L86.119 21.4405L57.7538 36.0827C57.7538 36.0827 57.4225 37.5814 58.4165 37.7443L88.7698 22.9393V20.1894L53.271 3.63803" stroke="#B04B19" stroke-miterlimit="10"/>
<path d="M82.6817 19.8438L63.7244 18.117C63.7244 18.117 62.2302 16.9506 63.7244 15.4519L77.9716 17.6478" stroke="#B04B19" stroke-miterlimit="10"/>
<path d="M64.7769 15.4519V11.5032" stroke="#B04B19" stroke-miterlimit="10"/>
<path d="M64.7769 18.2148C64.7769 18.2148 60.9893 25.2718 61.9443 33.9252" stroke="#B04B19" stroke-miterlimit="10"/>
<path d="M61.7884 36.1021V41.4062L59.9109 44.0713" stroke="#B04B19" stroke-miterlimit="10"/>
<path d="M41.4987 39.4057C41.4987 39.4057 38.01 45.2376 42.3238 50.2289L54.1022 58.3806C54.1022 58.3806 62.0672 61.5409 65.5494 55.5526C65.5494 55.5526 74.7616 45.4461 70.4284 31.8926" stroke="#B04B19" stroke-miterlimit="10"/>
<path d="M91.7584 104.634V110.068C91.7584 111.078 92.1937 112.023 92.9213 112.59C94.448 113.782 97.1507 114.962 99.0412 110.564C99.327 109.905 99.4765 109.169 99.4765 108.433V102.601" stroke="#B04B19" stroke-miterlimit="10"/>
<path d="M5.49966 42.0776L88.7698 89.9919L87.9382 112.454L26.4 94.9834" stroke="#B04B19" stroke-miterlimit="10"/>
<path d="M24.7434 53.1487L104.694 91.9858L88.7698 97.6419" stroke="#B04B19" stroke-miterlimit="10"/>
<path d="M24.7434 41.074V48.8544L104.694 85.3326V91.9858C104.694 91.9858 104.694 102.966 101.705 107.625L99.4637 108.433" stroke="#B04B19" stroke-miterlimit="10"/>
<path d="M27.0628 101.226L69.1624 107.123" stroke="#B04B19" stroke-miterlimit="10"/>
<path d="M92.2521 103.266C93.0773 103.266 93.7463 102.968 93.7463 102.601C93.7463 102.234 93.0773 101.936 92.2521 101.936C91.4269 101.936 90.7579 102.234 90.7579 102.601C90.7579 102.968 91.4269 103.266 92.2521 103.266Z" stroke="#B04B19" stroke-miterlimit="10"/>
<path d="M98.476 101.891C99.3013 101.891 99.9703 101.593 99.9703 101.226C99.9703 100.859 99.3013 100.561 98.476 100.561C97.6508 100.561 96.9818 100.859 96.9818 101.226C96.9818 101.593 97.6508 101.891 98.476 101.891Z" stroke="#B04B19" stroke-miterlimit="10"/>
<path d="M90.7579 102.601V104.171C90.7579 104.171 92.1676 105.044 93.7463 104.171V102.601" stroke="#B04B19" stroke-miterlimit="10"/>
<path d="M96.9818 101.226V102.601C96.9818 102.601 98.5605 103.813 99.9703 102.601V101.226" stroke="#B04B19" stroke-miterlimit="10"/>
<path d="M93.0188 104.562V108.909C93.0188 110.016 93.5125 111 94.2532 111.678C95.1042 112.453 97.56 112.232 97.8133 108.146V103.266" stroke="#B04B19" stroke-miterlimit="10"/>
<path d="M27.0628 104.562L83.228 111.111" stroke="#B04B19" stroke-miterlimit="10"/>
<path d="M87.9382 112.453L91.7583 111.111" stroke="#B04B19" stroke-miterlimit="10"/>
<path d="M93.0188 110.244L97.8133 108.433" stroke="#B04B19" stroke-miterlimit="10"/>
<path d="M64.7185 2.63452C64.7185 2.63452 76.1916 7.78225 83.2275 17.6086" stroke="#B04B19" stroke-miterlimit="10"/>
<path d="M86.5674 24.0144C86.5674 24.0144 91.2581 29.2796 91.7518 40.0836L90.7578 78.9728" stroke="#B04B19" stroke-miterlimit="10"/>
<path d="M102.589 105.885L150.977 94.6511" stroke="#B04B19" stroke-miterlimit="10"/>
<path d="M93.7464 80.3346L135.547 75.3953V36.102C133.559 28.302 129.577 21.7727 129.577 21.7727" stroke="#B04B19" stroke-miterlimit="10"/>
<path d="M135.547 36.1021L139.861 40.9111V74.7567L135.547 75.3953" stroke="#B04B19" stroke-miterlimit="10"/>
<path d="M104.694 87.8285L148.82 80.3413" stroke="#B04B19" stroke-miterlimit="10"/>
<path d="M139.861 40.9096L147.657 40.7417" stroke="#B04B19" stroke-miterlimit="10"/>
<path d="M139.861 74.7567L148.625 73.8379" stroke="#B04B19" stroke-miterlimit="10"/>
<path d="M30.6555 175.746L30.0968 176.809C29.2652 178.835 28.2972 182.725 29.0963 184.765C29.6095 186.088 30.3632 187.02 31.2013 187.678C33.852 189.756 37.7241 189.124 39.8421 186.505C44.3834 180.875 40.6737 175.173 40.6737 175.173L40.4528 170.266L45.098 165.027H41.005V155.546L79.9211 162.988L80.1485 177.428L76.6662 181.781L83.9102 183.247" stroke="#B04B19" stroke-miterlimit="10"/>
<path d="M93.0837 184.693L92.6419 193.92C91.3166 199.909 89.0556 195.914 89.0556 195.914C88.6723 195.36 89.0556 183.325 89.0556 183.325L87.0091 183.247H83.9101L83.0006 183.937C80.7592 185.71 79.7846 191.802 79.7846 191.802C79.1804 194.52 79.6352 197.406 81.214 199.694C84.9367 205.083 89.9457 201.903 89.9457 201.903C95.637 199.798 93.0967 190.036 93.0967 190.036V183.325L96.9948 175.746L94.2791 175.857L94.4221 164.525L134.566 144.227L134.501 150.189L136.561 150.88V153.878C136.561 153.878 130.038 160.088 135.014 165.855C135.014 165.855 139.627 172.104 145.188 166.93C150.75 161.756 145.604 151.297 145.604 151.297L148.508 149.551L146.683 147.055L147.677 95.4199" stroke="#B04B19" stroke-miterlimit="10"/>
<path d="M99.0348 110.564L147.612 97.6421" stroke="#B04B19" stroke-miterlimit="10"/>
<path d="M134.144 101.226L143.759 101.936V133.749L93.7464 128.256" stroke="#B04B19" stroke-miterlimit="10"/>
<path d="M32.676 105.214V149.388L89.1596 128.757L88.7697 112.323L91.6608 113.685L93.7398 113.398L94.5779 159.032L139.861 136.362L94.0647 131.246" stroke="#B04B19" stroke-miterlimit="10"/>
<path d="M32.676 154.21L36.1842 155.044L36.2556 165.027H32.7409L32.676 154.21Z" stroke="#B04B19" stroke-miterlimit="10"/>
<path d="M84.9562 164.023L89.1596 165.965L89.0491 175.746H84.8458L84.9562 164.023Z" stroke="#B04B19" stroke-miterlimit="10"/>
<path d="M137.704 142.233V147.505L142.843 148.273V139.568L137.704 142.233Z" stroke="#B04B19" stroke-miterlimit="10"/>
<path d="M102.588 155.024V151.212C102.588 151.212 102.939 154.841 102.588 150.378C102.238 145.914 99.0413 144.722 99.0413 144.722V143.392L100.893 140.695L100.711 139.567V131.989" stroke="#B04B19" stroke-miterlimit="10"/>
<path d="M94.2661 142.07L96.9817 140.565V131.572" stroke="#B04B19" stroke-miterlimit="10"/>
<path d="M28.7259 166.852C28.7259 166.852 29.9928 168.683 32.6759 167.516V165.021" stroke="#B04B19" stroke-miterlimit="10"/>
<path d="M36.1843 165.027V167.907C36.1843 167.907 38.8154 169.999 40.9918 167.907V165.027" stroke="#B04B19" stroke-miterlimit="10"/>
<path d="M40.6672 175.173L40.5827 180.914C40.5372 184.563 39.2703 184.967 38.1204 184.57C36.9705 184.172 36.2558 183.032 36.2558 181.813L36.1843 170.266H31.0063L24.9058 170.097L28.7195 166.852L27.0628 101.226L26.4001 94.9835L3.51169 87.998L5.49972 42.0777L24.7434 41.0807L28.0633 27.1032L18.1101 11.7965L20.0981 2.47817L45.9751 0.151855L53.271 3.64459C53.271 3.64459 53.271 0.647094 67.7005 3.64459L115.141 10.9624C115.141 10.9624 125.256 14.2922 129.57 21.7794L135.209 23.2782L147.651 40.7484L148.814 80.3479L150.971 94.6577" stroke="#B04B19" stroke-miterlimit="10"/>
<path d="M36.1842 177.48C36.1842 177.48 32.9229 179.676 34.8589 184.074C34.8589 184.074 37.4316 188.14 39.504 184.693" stroke="#B04B19" stroke-miterlimit="10"/>
<path d="M30.6555 175.746C30.6555 175.746 32.6175 172.404 36.2557 173.844" stroke="#B04B19" stroke-miterlimit="10"/>
<path d="M39.2573 183.246C39.9139 183.246 40.4462 182.59 40.4462 181.78C40.4462 180.971 39.9139 180.314 39.2573 180.314C38.6007 180.314 38.0684 180.971 38.0684 181.78C38.0684 182.59 38.6007 183.246 39.2573 183.246Z" stroke="#B04B19" stroke-miterlimit="10"/>
<path d="M91.1216 195.719C91.7782 195.719 92.3105 195.062 92.3105 194.253C92.3105 193.443 91.7782 192.786 91.1216 192.786C90.465 192.786 89.9327 193.443 89.9327 194.253C89.9327 195.062 90.465 195.719 91.1216 195.719Z" stroke="#B04B19" stroke-miterlimit="10"/>
<path d="M36.1843 170.266H40.4396" stroke="#B04B19" stroke-miterlimit="10"/>
<path d="M28.7259 170.266H29.2781V178.613" stroke="#B04B19" stroke-miterlimit="10"/>
<path d="M32.1497 170.266V174.215" stroke="#B04B19" stroke-miterlimit="10"/>
<path d="M84.956 174.508V177.48C84.8001 180.08 80.22 182.256 80.1485 177.428" stroke="#B04B19" stroke-miterlimit="10"/>
<path d="M89.0491 175.746V178.431C89.0491 178.431 91.7517 181.07 93.7397 178.431L94.266 175.857" stroke="#B04B19" stroke-miterlimit="10"/>
<path d="M81.0321 183.344V187.104" stroke="#B04B19" stroke-miterlimit="10"/>
<path d="M88.7698 187.821C88.7698 187.821 85.1251 193.809 87.0027 197.361C87.0027 197.361 89.1596 200.58 91.1216 197.1" stroke="#B04B19" stroke-miterlimit="10"/>
<path d="M140.277 162.525C140.826 162.525 141.271 162.078 141.271 161.528C141.271 160.977 140.826 160.531 140.277 160.531C139.728 160.531 139.283 160.977 139.283 161.528C139.283 162.078 139.728 162.525 140.277 162.525Z" stroke="#B04B19" stroke-miterlimit="10"/>
<path d="M99.8923 152.802C100.635 152.802 101.237 152.199 101.237 151.454C101.237 150.709 100.635 150.105 99.8923 150.105C99.1496 150.105 98.5475 150.709 98.5475 151.454C98.5475 152.199 99.1496 152.802 99.8923 152.802Z" stroke="#B04B19" stroke-miterlimit="10"/>
<path d="M136.541 150.88L142.843 151.545V158.615L140.27 159.032C140.27 159.032 137.366 159.612 138.282 162.107C138.282 162.107 138.698 163.938 141.68 163.189L144.584 161.527L146.078 162.524L147.813 159.032" stroke="#B04B19" stroke-miterlimit="10"/>
<path d="M94.3051 144.123L96.5139 145.81L96.9817 149.994L94.4285 150.88" stroke="#B04B19" stroke-miterlimit="10"/>
<path d="M94.4871 154.21L97.8134 153.767L99.9638 154.21L100.893 155.539" stroke="#B04B19" stroke-miterlimit="10"/>
<path d="M96.514 145.81L99.0347 144.729" stroke="#B04B19" stroke-miterlimit="10"/>
<path d="M142.843 151.551L145.585 151.297" stroke="#B04B19" stroke-miterlimit="10"/>
<path d="M136.541 153.877C136.541 153.877 138.087 152.307 142.843 153.767" stroke="#B04B19" stroke-miterlimit="10"/>
<path d="M142.843 157.129C142.843 157.129 139.341 156.562 138.964 159.618" stroke="#B04B19" stroke-miterlimit="10"/>
<path d="M139.692 163.372C139.692 163.372 142.843 165.965 143.759 162.003" stroke="#B04B19" stroke-miterlimit="10"/>
<path d="M134.514 147.505C134.514 147.505 135.937 148.476 137.704 147.505V146.169" stroke="#B04B19" stroke-miterlimit="10"/>
<path d="M142.843 148.273L144.24 149.381C144.24 149.381 145.663 149.212 146.657 147.055" stroke="#B04B19" stroke-miterlimit="10"/>
<path d="M96.9818 140.565C96.9818 140.565 99.47 141.288 100.893 140.695" stroke="#B04B19" stroke-miterlimit="10"/>
<path d="M62.2432 26.0671C62.2432 26.0671 67.3755 26.621 69.1621 30.1918" stroke="#B04B19" stroke-miterlimit="10"/>
<path d="M45.975 48.9002C46.6173 48.9002 47.1379 48.3779 47.1379 47.7338C47.1379 47.0896 46.6173 46.5674 45.975 46.5674C45.3328 46.5674 44.8121 47.0896 44.8121 47.7338C44.8121 48.3779 45.3328 48.9002 45.975 48.9002Z" stroke="#B04B19" stroke-miterlimit="10"/>
<path d="M50.6203 53.0444C51.2805 53.0444 51.8157 52.5076 51.8157 51.8454C51.8157 51.1833 51.2805 50.6465 50.6203 50.6465C49.9601 50.6465 49.4249 51.1833 49.4249 51.8454C49.4249 52.5076 49.9601 53.0444 50.6203 53.0444Z" stroke="#B04B19" stroke-miterlimit="10"/>
<path d="M57.4225 55.7487C58.1939 55.7487 58.8192 55.1215 58.8192 54.3477C58.8192 53.574 58.1939 52.9468 57.4225 52.9468C56.651 52.9468 56.0257 53.574 56.0257 54.3477C56.0257 55.1215 56.651 55.7487 57.4225 55.7487Z" stroke="#B04B19" stroke-miterlimit="10"/>
<path d="M64.1403 51.7216C64.9117 51.7216 65.537 51.0944 65.537 50.3206C65.537 49.5469 64.9117 48.9197 64.1403 48.9197C63.3688 48.9197 62.7435 49.5469 62.7435 50.3206C62.7435 51.0944 63.3688 51.7216 64.1403 51.7216Z" stroke="#B04B19" stroke-miterlimit="10"/>
<path d="M65.706 44.736C66.4774 44.736 67.1027 44.1088 67.1027 43.335C67.1027 42.5613 66.4774 41.9341 65.706 41.9341C64.9345 41.9341 64.3092 42.5613 64.3092 43.335C64.3092 44.1088 64.9345 44.736 65.706 44.736Z" stroke="#B04B19" stroke-miterlimit="10"/>
<path d="M89.0491 183.325H93.0836" stroke="#B04B19" stroke-miterlimit="10"/>
<path d="M36.1843 155.044L40.9983 155.539" stroke="#B04B19" stroke-miterlimit="10"/>
<path d="M79.9146 162.981L84.956 164.024" stroke="#B04B19" stroke-miterlimit="10"/>
<path d="M134.553 144.227L137.704 142.233" stroke="#B04B19" stroke-miterlimit="10"/>
<path d="M32.676 149.388L40.1668 150.548L88.7697 131.253V160.368L39.5042 150.548" stroke="#B04B19" stroke-miterlimit="10"/>
</g>
<defs>
<clipPath id="clip0_21_522">
<rect width="151" height="204" fill="white"/>
</clipPath>
</defs>
</svg>

<svg width="151" height="204" fill="none" xmlns="http://www.w3.org/2000/svg"><g opacity=".6" clip-path="url(#a)" stroke="#B04B19" stroke-miterlimit="10"><path d="m45.974.152-.994 9.976-26.876 1.668"/><path d="M28.057 27.103s19.906 19.301 26.208 21.628c0 0 3.651 1.329 5.64-4.66 0 0-15.262-14.31-14.93-33.943M45.728 2.635 86.12 21.44 57.754 36.084s-.331 1.498.663 1.661L88.77 22.94v-2.75L53.27 3.638"/><path d="m82.682 19.844-18.958-1.727s-1.494-1.166 0-2.665l14.248 2.196M64.777 15.452v-3.949M64.777 18.215s-3.788 7.057-2.833 15.71M61.788 36.102v5.304l-1.877 2.665"/><path d="M41.499 39.406s-3.489 5.832.825 10.823l11.778 8.152s7.965 3.16 11.447-2.828c0 0 9.213-10.107 4.88-23.66M91.758 104.634v5.434c0 1.01.436 1.955 1.163 2.522 1.527 1.192 4.23 2.372 6.12-2.026a5.393 5.393 0 0 0 .436-2.131v-5.832M5.5 42.078l83.27 47.914-.832 22.462L26.4 94.984"/><path d="m24.743 53.149 79.951 38.837-15.924 5.656"/><path d="M24.743 41.074v7.78l79.951 36.479v6.653s0 10.98-2.989 15.639l-2.241.808M27.063 101.226l42.1 5.897"/><path d="M92.252 103.266c.825 0 1.494-.298 1.494-.665 0-.367-.669-.665-1.494-.665s-1.494.298-1.494.665c0 .367.669.665 1.494.665ZM98.476 101.891c.825 0 1.494-.298 1.494-.665 0-.367-.669-.665-1.494-.665s-1.494.298-1.494.665c0 .367.669.665 1.494.665Z"/><path d="M90.758 102.601v1.57s1.41.873 2.988 0v-1.57M96.982 101.226v1.375s1.579 1.212 2.988 0v-1.375"/><path d="M93.019 104.562v4.347c0 1.107.493 2.091 1.234 2.769.851.775 3.307.554 3.56-3.532v-4.88M27.063 104.562l56.165 6.549M87.938 112.453l3.82-1.342M93.019 110.244l4.794-1.811M64.719 2.635s11.473 5.147 18.509 14.974M86.567 24.014s4.691 5.266 5.185 16.07l-.994 38.889M102.589 105.885l48.388-11.234M93.746 80.335l41.801-4.94V36.102c-1.988-7.8-5.97-14.33-5.97-14.33M135.547 36.102l4.314 4.81v33.845l-4.314.638M104.694 87.829l44.126-7.488M139.861 40.91l7.796-.168M139.861 74.757l8.764-.92M30.655 175.746l-.558 1.063c-.832 2.026-1.8 5.916-1 7.956.512 1.323 1.266 2.255 2.104 2.913 2.651 2.078 6.523 1.446 8.641-1.173 4.541-5.63.832-11.332.832-11.332l-.221-4.907 4.645-5.239h-4.093v-9.481l38.916 7.442.227 14.44-3.482 4.353 7.244 1.466"/><path d="m93.084 184.693-.442 9.227c-1.325 5.989-3.586 1.994-3.586 1.994-.384-.554 0-12.589 0-12.589l-2.047-.078H83.91l-.91.69c-2.24 1.773-3.215 7.865-3.215 7.865-.605 2.718-.15 5.604 1.429 7.892 3.723 5.389 8.732 2.209 8.732 2.209 5.691-2.105 3.15-11.867 3.15-11.867v-6.711l3.899-7.579-2.716.111.143-11.332 40.144-20.298-.065 5.962 2.06.691v2.998s-6.523 6.21-1.547 11.977c0 0 4.613 6.249 10.174 1.075 5.562-5.174.416-15.633.416-15.633l2.904-1.746-1.825-2.496.994-51.635M99.035 110.564l48.577-12.922"/><path d="m134.144 101.226 9.615.71v31.813l-50.013-5.493"/><path d="M32.676 105.214v44.174l56.484-20.631-.39-16.434 2.89 1.362 2.08-.287.838 45.634 45.283-22.67-45.796-5.116M32.676 154.21l3.508.834.072 9.983H32.74l-.065-10.817ZM84.956 164.023l4.204 1.942-.11 9.781h-4.204l.11-11.723ZM137.704 142.233v5.272l5.139.768v-8.705l-5.139 2.665Z"/><path d="M102.588 155.024v-3.812s.351 3.629 0-.834c-.35-4.464-3.547-5.656-3.547-5.656v-1.33l1.852-2.697-.182-1.128v-7.578M94.266 142.07l2.716-1.505v-8.993M28.726 166.852s1.267 1.831 3.95.664v-2.495M36.184 165.027v2.88s2.631 2.092 4.808 0v-2.88"/><path d="m40.667 175.173-.084 5.741c-.046 3.649-1.313 4.053-2.463 3.656-1.15-.398-1.864-1.538-1.864-2.757l-.072-11.547h-5.178l-6.1-.169 3.814-3.245-1.657-65.626-.663-6.242-22.888-6.986L5.5 42.078l19.243-.997 3.32-13.978-9.953-15.307 1.988-9.318L45.975.152l7.296 3.493s0-2.998 14.43 0l47.44 7.317s10.115 3.33 14.429 10.817l5.639 1.5 12.442 17.47 1.163 39.599 2.157 14.31"/><path d="M36.184 177.48s-3.261 2.196-1.325 6.594c0 0 2.573 4.066 4.645.619M30.655 175.746s1.962-3.342 5.6-1.902"/><path d="M39.257 183.246c.657 0 1.19-.656 1.19-1.466 0-.809-.533-1.466-1.19-1.466-.656 0-1.189.657-1.189 1.466 0 .81.533 1.466 1.19 1.466ZM91.122 195.719c.656 0 1.189-.657 1.189-1.466 0-.81-.533-1.467-1.19-1.467-.656 0-1.188.657-1.188 1.467 0 .809.532 1.466 1.189 1.466ZM36.184 170.266h4.256M28.726 170.266h.552v8.347M32.15 170.266v3.949M84.956 174.508v2.972c-.156 2.6-4.736 4.776-4.808-.052M89.05 175.746v2.685s2.702 2.639 4.69 0l.526-2.574M81.032 183.344v3.76"/><path d="M88.77 187.821s-3.645 5.988-1.767 9.54c0 0 2.157 3.219 4.119-.261M140.277 162.525a.996.996 0 0 0 .994-.997.995.995 0 1 0-1.988 0c0 .55.445.997.994.997ZM99.892 152.802c.743 0 1.345-.603 1.345-1.348 0-.745-.602-1.349-1.345-1.349-.742 0-1.344.604-1.344 1.349s.602 1.348 1.344 1.348Z"/><path d="m136.541 150.88 6.302.665v7.07l-2.573.417s-2.904.58-1.988 3.075c0 0 .416 1.831 3.398 1.082l2.904-1.662 1.494.997 1.735-3.492M94.305 144.123l2.209 1.687.468 4.184-2.553.886M94.487 154.21l3.326-.443 2.15.443.93 1.329M96.514 145.81l2.52-1.081M142.843 151.551l2.742-.254"/><path d="M136.541 153.877s1.546-1.57 6.302-.11M142.843 157.129s-3.502-.567-3.879 2.489M139.692 163.372s3.151 2.593 4.067-1.369M134.514 147.505s1.423.971 3.19 0v-1.336M142.843 148.273l1.397 1.108s1.423-.169 2.417-2.326M96.982 140.565s2.488.723 3.911.13M62.243 26.067s5.133.554 6.92 4.125M45.975 48.9c.642 0 1.163-.522 1.163-1.166 0-.644-.52-1.167-1.163-1.167-.642 0-1.163.523-1.163 1.167s.52 1.166 1.163 1.166ZM50.62 53.044c.66 0 1.196-.536 1.196-1.199 0-.662-.535-1.198-1.196-1.198-.66 0-1.195.536-1.195 1.198 0 .663.535 1.2 1.195 1.2ZM57.422 55.749c.772 0 1.397-.628 1.397-1.401 0-.774-.625-1.401-1.397-1.401-.771 0-1.396.627-1.396 1.4 0 .774.625 1.402 1.396 1.402ZM64.14 51.722c.772 0 1.397-.628 1.397-1.401 0-.774-.625-1.401-1.397-1.401-.771 0-1.397.627-1.397 1.4 0 .774.626 1.402 1.397 1.402ZM65.706 44.736c.771 0 1.397-.627 1.397-1.401s-.626-1.4-1.397-1.4c-.772 0-1.397.626-1.397 1.4 0 .774.626 1.401 1.397 1.401ZM89.05 183.325h4.034M36.184 155.044l4.814.495M79.915 162.981l5.041 1.043M134.553 144.227l3.151-1.994M32.676 149.388l7.49 1.16 48.604-19.295v29.115l-49.266-9.82"/></g><defs><clipPath id="a"><path fill="#fff" d="M0 0h151v204H0z"/></clipPath></defs></svg>
